X:1
T:We Shall Know Each Other There
T:We Shall Know Each Other There
T:John B. Vaughan
T:John B. Vaughan, 1891
T:Public Domain Courtesy of the Cyber Hymnal™
T:Public Domain Courtesy of the Cyber Hymnal™
C:John B. Vaughan
Z:Public Domain
Z:Courtesy of the Cyber Hymnal™
%%score ( 1 2 ) ( 3 4 )
L:1/8
Q:1/4=94
M:4/4
K:E
V:1 treble 
V:2 treble 
V:3 bass 
V:4 bass 
V:1
 [EG]>[EA] | [EB]>[EB] [EB]>[Ec] [EB]2 [EB]>[EA] | [EG]>[B,F] [B,E]>[B,D] [B,E]2 [EB]>[EB] | %3
w: 1.~When our|pil- grim- age is o’er, And we|reach the oth- er shore, And our|
w: 2.~When be-|fore our Fa- ther’s throne We will|meet the loved ones gone, In that|
w: 3.~There we’ll|see the Sav- ior’s face, In that|bright and hap- py place, And His|
 [DB]>[DF] [DF]>[EG] [FA]2 [Dc]>[Dc] | [EB]6 [EG]>[EA] | [EB]>[EB] [EB]>[Ec] [EB]2 [EB]>[EA] | %6
w: robes and crowns we’ll wear, by and|by; This the|thought that comes to me, Borne on|
w: land so bright and fair, ov- er|there; They are|sing- ing songs of love, In that|
w: glo- ry we shall share, by and|by; Far be-|yond this mor- tal sight, Shines a|
 [EG]>[B,F] [B,E]>[B,D] [B,E]2 (3([DB][Ec])[Fd] | [Ge]>[Ge] [EG]>[Ec] [EB]2 [EG]>[DF] | E6 || %9
w: wings from o’er the sea: Shall * we|know each oth- er there, by and|by?|
w: home pre- pared a- bove; Shall * we|know each oth- er there, by and|by?|
w: bright and gold- en light, And * we’ll|know each oth- er there, by and|by.|
"^Refrain" (3([DB][Ec])[Fd] | [Ge]>[Ge] [Bd]>[Ac] [GB]2 [EG]>[CF] | %11
w: ||
w: Yes, * we’ll|know each oth- er there, In that|
w: ||
 [CE]>[CE] [CE]>[DF] [EG]2 (3([DB][Ec])[Fd] | [Ge]>[Ge] [EB]>[Ec] [EG]2 [EG]>E | %13
w: ||
w: home so bright and fair; Yes, * we’ll|know each oth- er there, by and|
w: ||
 [DB]6 (3([DB][Ec])[Fd] | [Ge]>[Ge] [EB]>[Ec] [EG]2 [EG]>[DF] | %15
w: ||
w: by; ’Tis * a|glor- ious thought to me, In that|
w: ||
 [CE]>[CE] [CE]>[DF] [EG]2 (3([DB][Ec])[Fd] | [Ge]>[Ge] [EG]>[Ec] [EB]2 [EG]>[DF] | E6 |] %18
w: |||
w: home be- yond the sea, We * shall|know each oth- er there, by and|by.|
w: |||
V:2
 x2 | x8 | x8 | x8 | x8 | x8 | x8 | x8 | E6 || x2 | x8 | x8 | x15/2 E/ | x8 | x8 | x8 | x8 | E6 |] %18
V:3
 E,>[E,F,] | [E,G,]>[E,G,] [E,G,]>[E,A,] [E,G,]2 [E,G,]>[A,,C] | %2
 [B,,B,]>[B,,A,] [B,,G,]>[B,,F,] [E,G,]2 [E,G,]>[E,G,] | %3
 [B,,F,]>[B,,B,] [B,,B,]>[B,,B,] [B,,B,]2 [B,,A,]>[B,,A,] | [E,G,]6 E,>[E,F,] | %5
 [E,G,]>[E,G,] [E,G,]>[E,A,] [E,G,]2 [E,G,]>[A,,C] | %6
 [B,,B,]>[B,,A,] [B,,G,]>[B,,F,] [E,G,]2 (3:2:2[B,,B,]2 [B,,B,] | %7
 [E,B,]>[E,B,] [E,B,]>[A,,A,] [B,,G,]2 [B,,B,]>[B,,A,] | [E,G,]6 || (3:2:2[B,,B,]2 [B,,B,] | %10
 [E,B,]>[E,B,] [E,C]>[E,D] [E,E]2 [E,B,]>[B,,A,] | %11
 [C,G,]>[C,G,] [C,G,]>[B,,B,] [E,B,]2 (3:2:2[B,,B,]2 [B,,B,] | %12
 [E,B,]>[E,B,] [E,G,]>[E,A,] [E,B,]2 [E,B,]>[E,G,] | [B,,F,]6 (3:2:2[B,,B,]2 [B,,B,] | %14
 [E,B,]>[E,B,] [E,G,]>[E,A,] [E,B,]2 [E,B,]>[B,,A,] | %15
 [C,G,]>[C,G,] [C,G,]>[B,,B,] [E,B,]2 (3:2:2[B,,B,]2 [B,,B,] | %16
 [E,B,]>[E,B,] [E,B,]>[A,,A,] [B,,G,]2 [B,,B,]>[B,,A,] | [E,G,]6 |] %18
V:4
 E,3/2 x/ | x8 | x8 | x8 | x6 E,3/2 x/ | x8 | x8 | x8 | x6 || x2 | x8 | x8 | x8 | x8 | x8 | x8 | %16
 x8 | x6 |] %18

